X: 1
T: Fanny Dillon
B: A COLECTION of the most Celebrated Irish Tunes2 p.8a
N: The 2nd part had an initial repeat symbol but no final repeat symbol.
M: C
L: 1/8
K: Gdor
|:\
dfg2 gfdc | B4 TB>c (B/c/B/G/) | F4 dcdf | ga Tg3f d2 |
Tf3g gfdc | TB3c BcBG | FGFG (Bc)(cB) | (AG) G6 |
(fd)(dc) (BG)(Bc) | (defd) (gfga) | ba Tg4 (a/g/f) |
d4 (Bcde ) | (fd)(ga) (ba)(gf) | (dB)(df) (gd)(cB) | AG TG6 :|
|:\
Bcd2 dcBG | TB3c (B/c/B/G/) {F}D2 | TB3c (d/c/d/e/) (fc) | d2g2 Tg4 |
ga b4 ba | ag Tg4 ({a}g/a/g/f/) | d4 (Bc)(de) |f4 (dcBf) |
Tg4 (gfdg) | (fd) (d/c/B) Tc>d (B/c/B/G/) | F4 Bcde |
(fd)(ga) (ba)(gf) | dBdf gdcB | AG TG6 :|
